X: 21631
M: 3/4
L: 1/16
K: D
d4 d4 (e3c) | d4 A4 (D2FA) |\
(d3c) (d3e/f/) ({f}e3d) | (d4 {ed}c4) (d3c) |\
{c}B4 (B3c/d/) (3(d2c2B2) | {B}A4 (F2A2) (d2A2) |\
({c}B3A/G/) (F3D) TE4 | D8 |]
({G}F3E) (D3E) (F3G) | ({B}A3^G) (A3B) (c3A) |\
(d3c) (d3e/f/) ({f}e3d) | (d4 {ed}c4) d3c |\
{c}B4 (B3c/d/) ({e}d3c/B/) | A4 (F2A2) (d2A2) |\
({c}B2A/G/) (F3D) TE4 | D8 |]


